X: 4006
M: C|
L: 1/8
K: A
uE2 |\
e2 |\
abag f2(ga) | bfbf agfe |\
[1 abag fedc | dcBA B2 :|\
[2 agfe dcBA | EcBc A2 |]


